X:1
T:Betty Lou's Reel
M:4/4
L:1/8
C:Donald Angus Beaton
S:Arr. The Rankin Family
R:Reel
K:Bm
|: "Bm"f2Bc defe | "A"ceaf efAb | "Bm"~f2Bc defe :|1 "A"cAac "Bm"~B2B2 :|2 "A"ceac "Bm" B2BA |]
|: "Bm"FBBc d2cB | "A"ceaf ecBA | "Bm" FBBc d2cB :|1 "A"cAac "Bm"~B2BA :|2 "A"ceac "Bm"~B2B2 |]
